X: 35
T:Dukes Reel. JBa.34
M:2/2
L:1/8
Q:120
S:Joseph Barnes MS,Carlisle,1762.
R:reel
O:England
A:Carlisle
H:See Paul's notes..
Z:vmp.C.Graebe.
K:A minor
"No key/time sig.-but A minor feels OK"\
 G/A/B/c/  dc BGGB |  G/A/B/c/  dc AFFA |\
 G/A/B/c/ dc ecdB |cAgd AFFA  :|!
|: (B/c/d) gd BGGB | (B/c/d) gc AFFA |\
 (B/c/d) gd ecdB | cA fd AFFA :|]
